packages/foundations/assets/icons/functional/images/technology/power_socket_28.svg

<svg width="28" height="28" viewBox="0 0 28 28" fill="none" xmlns="http://www.w3.org/2000/svg">
<g clip-path="url(#clip0_187_604)">
<path fill-rule="evenodd" clip-rule="evenodd" d="M1.75 18.4023V4.375C1.75 2.98051 2.89844 1.75 4.29297 1.75H18.4013C19.8231 1.75 21 2.98051 21 4.375V11.4067C21 11.8716 20.5888 12.2544 20.0966 12.2544C19.6317 12.2544 19.2489 11.8716 19.2489 11.4067V4.375C19.2489 3.9102 18.8661 3.5 18.4013 3.5H4.29297C3.82812 3.5 3.5 3.9102 3.5 4.375V18.4023C3.5 18.8671 3.91016 19.25 4.375 19.25H11.4034C11.8683 19.25 12.2511 19.659 12.2511 20.1239C12.2511 20.6161 11.8683 20.9989 11.4034 20.9989L4.375 21C2.98047 21 1.75 19.8242 1.75 18.4023ZM11.375 5.25C14.7466 5.25 17.5 7.97539 17.5 11.3751C17.5 14.7466 14.7466 17.5 11.375 17.5C7.97534 17.5 5.25 14.7466 5.25 11.3751C5.25 7.97539 7.97534 5.25 11.375 5.25ZM11.375 7C8.96314 7 7 8.96305 7 11.375C7 13.7868 8.96314 15.75 11.375 15.75C13.7869 15.75 15.75 13.7868 15.75 11.375C15.75 8.96305 13.7869 7 11.375 7ZM9.61111 10.5C10.1111 10.5 10.5 10.8669 10.5 11.375C10.5 11.8548 10.1111 12.25 9.61111 12.25C9.13889 12.25 8.75 11.8548 8.75 11.375C8.75 10.8669 9.13889 10.5 9.61111 10.5ZM13.125 10.5C13.6048 10.5 14 10.8669 14 11.375C14 11.8548 13.6048 12.25 13.125 12.25C12.6452 12.25 12.25 11.8548 12.25 11.375C12.25 10.8669 12.6452 10.5 13.125 10.5ZM19.2227 14.7656C19.4141 14.7656 19.6055 14.8203 19.7422 14.9571L21.3008 16.5156L21.9023 15.9141C22.0938 15.7227 22.3125 15.6406 22.5039 15.6406C22.6953 15.6406 22.8867 15.6953 23.0234 15.8321L24.7461 17.5273C25.6211 18.375 26.0859 19.496 26.0859 20.6446C26.0859 21.6835 25.7031 22.75 24.9102 23.7071L26.0039 24.8008C26.168 24.9648 26.25 25.1835 26.25 25.4023C26.25 25.8672 25.8672 26.25 25.4297 26.25C25.2383 26.25 25.0195 26.1679 24.8008 26.004L23.707 24.9102C22.9141 25.6758 21.8477 26.0859 20.7539 26.0859C19.6602 26.0859 18.5664 25.7031 17.6914 24.8828L15.9141 23.1054C15.75 22.9415 15.668 22.7227 15.668 22.504C15.668 22.3125 15.7227 22.1484 15.832 21.9844L16.4883 21.3281L15.0117 19.8516C14.8477 19.6602 14.7656 19.4415 14.7656 19.25C14.7656 18.7578 15.1484 18.4023 15.6133 18.4023C15.8047 18.4023 15.9961 18.4571 16.1328 18.5665L17.6914 20.125L20.0977 17.7188L18.6211 16.2148C18.457 16.0508 18.375 15.8321 18.375 15.6133C18.375 15.1758 18.7852 14.7656 19.2227 14.7656ZM22.5312 17.6915L17.7188 22.504L18.7305 23.5429C19.2773 24.0625 20.0156 24.3906 20.7812 24.3906C21.3828 24.3906 21.9844 24.1992 22.4766 23.7617L23.6523 22.5859C24.1445 22.0391 24.3906 21.3828 24.3906 20.6992C24.3906 20.0156 24.1445 19.3594 23.6523 18.8398L22.5312 17.6915Z" fill="#1A1C1F"/>
</g>
<defs>
<clipPath id="clip0_187_604">
<rect width="28" height="28" fill="white"/>
</clipPath>
</defs>
</svg>

<svg xmlns="http://www.w3.org/2000/svg" width="28" height="28" fill="none"><g clip-path="url(#a)"><path fill="#1A1C1F" fill-rule="evenodd" d="M1.75 18.402V4.375c0-1.394 1.148-2.625 2.543-2.625h14.108C19.823 1.75 21 2.98 21 4.375v7.032c0 .465-.411.847-.903.847a.85.85 0 0 1-.848-.847V4.375c0-.465-.383-.875-.848-.875H4.293c-.465 0-.793.41-.793.875v14.027c0 .465.41.848.875.848h7.028c.465 0 .848.409.848.874a.86.86 0 0 1-.848.875L4.375 21C2.98 21 1.75 19.824 1.75 18.402M11.375 5.25a6.12 6.12 0 0 1 6.125 6.125c0 3.372-2.753 6.125-6.125 6.125a6.12 6.12 0 0 1-6.125-6.125c0-3.4 2.725-6.125 6.125-6.125m0 1.75A4.38 4.38 0 0 0 7 11.375a4.38 4.38 0 0 0 4.375 4.375 4.38 4.38 0 0 0 4.375-4.375A4.38 4.38 0 0 0 11.375 7m-1.764 3.5c.5 0 .889.367.889.875 0 .48-.389.875-.889.875a.873.873 0 0 1-.861-.875c0-.508.389-.875.861-.875m3.514 0c.48 0 .875.367.875.875a.88.88 0 0 1-.875.875.88.88 0 0 1-.875-.875c0-.508.395-.875.875-.875m6.098 4.266c.191 0 .383.054.52.191l1.558 1.559.601-.602a.86.86 0 0 1 .602-.273c.191 0 .383.054.52.191l1.722 1.695a4.33 4.33 0 0 1 1.34 3.118c0 1.038-.383 2.105-1.176 3.062l1.094 1.094a.85.85 0 0 1 .246.601c0 .465-.383.848-.82.848-.192 0-.41-.082-.63-.246l-1.093-1.094a4.25 4.25 0 0 1-2.953 1.176 4.43 4.43 0 0 1-3.063-1.203l-1.777-1.778a.85.85 0 0 1-.246-.601.9.9 0 0 1 .164-.52l.656-.656-1.476-1.476a.95.95 0 0 1-.246-.602c0-.492.382-.848.847-.848.192 0 .383.055.52.165l1.558 1.558 2.407-2.406-1.477-1.504a.85.85 0 0 1-.246-.602c0-.437.41-.847.848-.847m3.308 2.926-4.812 4.812 1.011 1.039c.547.52 1.286.848 2.051.848.602 0 1.203-.192 1.696-.63l1.175-1.175a2.8 2.8 0 0 0 .739-1.887c0-.683-.246-1.34-.739-1.86z" clip-rule="evenodd"/></g><defs><clipPath id="a"><path fill="#fff" d="M0 0h28v28H0z"/></clipPath></defs></svg>
